tools/download-figma-icons/icons/solid/worldwide.svg

<svg width="24" height="24" viewBox="0 0 24 24" fill="none" xmlns="http://www.w3.org/2000/svg">
<path d="M15.9111 12.6562C15.7799 18.1555 14.0666 22.4999 11.9805 22.5C9.89359 22.5 8.18105 18.1556 8.0498 12.6562H15.9111ZM6.73633 12.6562C6.82164 16.3772 7.63561 20.0458 9.13184 22.1064C4.91876 20.9252 1.78153 17.1778 1.5 12.6562H6.73633ZM22.46 12.6562C22.1778 17.1778 19.0413 20.9252 14.8281 22.1064C16.3244 20.0458 17.1393 16.3772 17.2246 12.6562H22.46ZM9.13184 1.89355C7.63562 3.95485 6.82196 7.62286 6.7373 11.3438H1.5C1.78218 6.82295 4.91886 3.07555 9.13184 1.89355ZM11.9805 1.5C14.0666 1.50012 15.7798 5.84455 15.9111 11.3438H8.0498C8.18109 5.84447 9.89362 1.5 11.9805 1.5ZM14.8281 1.89355C19.0412 3.07478 22.1777 6.82232 22.46 11.3438H17.2246C17.1393 7.6229 16.3243 3.95413 14.8281 1.89355Z" fill="black"/>
</svg>

<svg xmlns="http://www.w3.org/2000/svg" width="24" height="24" fill="none" viewBox="0 0 24 24"><path fill="currentColor" d="M15.911 12.656c-.131 5.5-1.844 9.844-3.93 9.844s-3.8-4.344-3.931-9.844zm-9.175 0c.086 3.721.9 7.39 2.396 9.45a10.5 10.5 0 0 1-7.632-9.45zm15.724 0a10.5 10.5 0 0 1-7.632 9.45c1.496-2.06 2.311-5.729 2.397-9.45zM9.132 1.894c-1.496 2.06-2.31 5.729-2.395 9.45H1.5a10.51 10.51 0 0 1 7.632-9.45M11.98 1.5c2.087 0 3.8 4.345 3.931 9.844H8.05c.13-5.5 1.844-9.844 3.93-9.844m2.848.394a10.5 10.5 0 0 1 7.632 9.45h-5.235c-.086-3.721-.9-7.39-2.397-9.45"/></svg>
